packages/ffe-icons/icons/open/400/sm/accessibility.svg

<svg xmlns="http://www.w3.org/2000/svg" height="20" viewBox="0 -960 960 960" width="20"><path d="M479.752-696Q445-696 420.5-720.748t-24.5-59.5Q396-815 420.748-839.5t59.5-24.5Q515-864 539.5-839.252t24.5 59.5Q564-745 539.252-720.5t-59.5 24.5ZM360-144v-420H180.276Q165-564 154.5-574.289q-10.5-10.29-10.5-25.5Q144-615 154.35-625.5 164.7-636 180-636h600q15.3 0 25.65 10.289 10.35 10.29 10.35 25.5Q816-585 805.65-574.5 795.3-564 780-564H600v420.121Q600-129 589.362-118.5 578.725-108 563-108q-14 0-24.5-10T527-142l-8-186h-77l-8 186q-1 14-11.638 24-10.637 10-26.362 10-15.3 0-25.65-10.35Q360-128.7 360-144Z"/></svg>

<svg xmlns="http://www.w3.org/2000/svg" height="20" viewBox="0 -960 960 960" width="20"><path d="M479.75-696q-34.75 0-59.25-24.75t-24.5-59.5q0-34.75 24.75-59.25t59.5-24.5q34.75 0 59.25 24.75t24.5 59.5q0 34.75-24.75 59.25t-59.5 24.5ZM360-144v-420H180.28q-15.28 0-25.78-10.29-10.5-10.29-10.5-25.5t10.35-25.71Q164.7-636 180-636h600q15.3 0 25.65 10.29Q816-615.42 816-600.21t-10.35 25.71Q795.3-564 780-564H600v420.12q0 14.88-10.64 25.38Q578.72-108 563-108q-14 0-24.5-10T527-142l-8-186h-77l-8 186q-1 14-11.64 24-10.63 10-26.36 10-15.3 0-25.65-10.35Q360-128.7 360-144Z"/></svg>
